X:1
T:Title
%%score 1 2 ( 3 4 ) { 5 | 6 }
L:1/8
M:3/4
K:C
V:1 treble nm="Choir Aahs, Staff"
V:2 treble nm="Sitar, Staff-1"
V:3 treble nm="Grand Piano, Staff-2"
V:4 treble 
V:5 bass nm="Choir Pad, Staff-3"
V:6 bass 
V:1
 E2 F2 G2 | A4 F2 | D4 A2 | G2 E2 D2 | C2 D2 E2 | F4 D>C | B,4 D2 | E4 F2 | G6 | E2 F2 G2 | A4 F2 | %11
w: By~Marty~Haugen,~1985 * *|||||||||||
 D4 A2 | G4 E>D | C4 E2 | F2 D2 C2 | B,4 F2 | G2 E2 D2 | C4 E2 | F2 E2 D2 | C4 B,2 | C6 |] %21
w: ||||||||||
V:2
 G2 c2 _B2 | A2 B2 c2 | B4 B2 | c2 G2 G2 | A2 E2 A2 | A4 A2 | G4 F2 | G4 G2 | c6 | G2 c2 _B2 | %10
 A2 B2 c2 | B4 A2 | G4 ^G2 | A4 G2 | A2 A2 A2 | G4 A2 | B2 B2 B2 | A4 A2 | A2 G2 F2 | E4 D2 | C6 |] %21
V:3
 [G,E]2 [CF]2 [_B,G]2 | A4 z2 | B,2 C2 [DA]2 | [EG]2 [CE]2 D2 | C2 [A,D]2 [CE]2 | %5
 [CF]4[K:bass] [F,A,D]>C | [G,B,]4 [G,D]2 | [CE]4[K:treble] [A,CF]2 | [_B,CG]6 | %9
 [G,E]2 [CF]2 [_B,CG]2 | A4 z2 | [B,D]4 [B,A]2 | [G,CG]4 [B,E]>D | [A,C]4 [A,E]2 | F2 z2 z2 | %15
 [G,B,]4 [A,CF]2 | G2 z2 z2 | [A,C]4 [CE]2 | [A,CF]2[K:bass] [G,CE]2 [A,D]2 | [G,C]4 B,2 | %20
 [G,C]6 |] %21
V:4
 x6 | [A,C]2 B,2 [A,CF]2 | D4 z2 | x6 | x6 | x4[K:bass] x2 | x6 | x4[K:treble] x2 | x6 | x6 | %10
 [A,C]2 [B,D]2 [A,CF]2 | x6 | x6 | x6 | [A,C]2- [A,CD]2 [A,C]2 | x6 | [G,B,]2- [G,B,E]2 [B,D]2 | %17
 x6 | x2[K:bass] x4 | x6 | x6 |] %21
V:5
 C,2 D,2 E,2 | F,4 F,2 | G,4 G,2 | G,4 G,2 | A,2 E,2 A,2 | A,3 D,, D,2 | D,4 z2 | G,2 C,,2 D,2 | %8
 C,4 G,,2 | C,2 D,2 E,2 | D,4 D,2 | G,4 G,2 | E,4 E,2 | E,2 B,,,2 C,2 | D,4 F,2 | G,2 G,,2 F,2 | %16
 E,4 G,2 | E,4 A,2 | D,2 E,2 F,2 | E,3 G,,, F,2 | E,6 |] %21
V:6
 C,,2 D,,2 E,,2 | F,,4 F,,2 | G,,2 A,,2 B,,2 | C,3 C, B,,2 | A,,2 B,,2 C,2 | .D,4 z2 | %6
 G,,2 A,,2 B,,2 | C,2 z2 D,,2 | E,,4 z2 | C,,2 D,,2 E,,2 | D,,4 D,,2 | G,,4 [F,,F,]2 | E,,4 ^G,,2 | %13
 A,,2 z2 C,,2 | D,,4 F,,2 | G,,2 z2 F,,2 | E,,2 G,,2 B,,2 | A,,2 B,,2 C,2 | D,,2 E,,2 F,,2 | %19
 .G,,4 [G,,D,]2 | [C,,C,]6 |] %21

